Numix-GalliumOS/48/actions/document-close.svg

<?xml version="1.0" encoding="UTF-8" standalone="no"?>
<svg
   xmlns:dc="http://purl.org/dc/elements/1.1/"
   xmlns:cc="http://creativecommons.org/ns#"
   xmlns:rdf="http://www.w3.org/1999/02/22-rdf-syntax-ns#"
   xmlns:svg="http://www.w3.org/2000/svg"
   xmlns="http://www.w3.org/2000/svg"
   xmlns:sodipodi="http://sodipodi.sourceforge.net/DTD/sodipodi-0.dtd"
   xmlns:inkscape="http://www.inkscape.org/namespaces/inkscape"
   width="48"
   height="48"
   viewBox="0 0 48 48"
   id="svg2"
   version="1.1"
   inkscape:version="0.91 r13725"
   sodipodi:docname="document-close.svg">
  <metadata
     id="metadata12">
    <rdf:RDF>
      <cc:Work
         rdf:about="">
        <dc:format>image/svg+xml</dc:format>
        <dc:type
           rdf:resource="http://purl.org/dc/dcmitype/StillImage" />
        <dc:title></dc:title>
      </cc:Work>
    </rdf:RDF>
  </metadata>
  <defs
     id="defs10" />
  <sodipodi:namedview
     pagecolor="#ffffff"
     bordercolor="#666666"
     borderopacity="1"
     objecttolerance="10"
     gridtolerance="10"
     guidetolerance="10"
     inkscape:pageopacity="0"
     inkscape:pageshadow="2"
     inkscape:window-width="1366"
     inkscape:window-height="704"
     id="namedview8"
     showgrid="true"
     inkscape:zoom="13.906433"
     inkscape:cx="24"
     inkscape:cy="15.3709"
     inkscape:window-x="0"
     inkscape:window-y="27"
     inkscape:window-maximized="1"
     inkscape:current-layer="svg2">
    <inkscape:grid
       type="xygrid"
       id="grid4140" />
  </sodipodi:namedview>
  <path
     style="fill:#fff;fill-rule:evenodd"
     d="M 10 4 L 30 4 C 34 4 34 4 34 8 L 34 36 C 34 40 34 40 30 40 L 10 40 C 6 40 6 40 6 36 L 6 8 C 6 4 6 4 10 4 Z "
     id="path4" />
  <path
     style="fill:#dc322f;fill-opacity:1"
     d="M 43.970416,38.343146 38.313562,32.686292 43.970416,27.029438 38.313562,21.372584 32.656708,27.029438 26.999854,21.372584 21.343,27.029438 26.999854,32.686292 21.343,38.343146 26.999854,44 32.656708,38.343146 38.313562,44 Z"
     id="path6"
     inkscape:connector-curvature="0" />
</svg>

<svg xmlns="http://www.w3.org/2000/svg" viewBox="0 0 48 48">
 <path d="m 10 4 l 20 0 c 4 0 4 0 4 4 l 0 28 c 0 4 0 4 -4 4 l -20 0 c -4 0 -4 0 -4 -4 l 0 -28 c 0 -4 0 -4 4 -4 Z" style="fill:#fff;fill-rule:evenodd"/>
 <path d="m 43.97 38.34 -5.657 -5.657 5.657 -5.657 -5.657 -5.657 -5.657 5.657 -5.657 -5.657 -5.657 5.657 5.657 5.657 -5.657 5.657 5.657 5.657 5.657 -5.657 5.657 5.657" style="fill:#dc322f;fill-opacity:1"/>
</svg>
